actions/22x22-dark/zoom-out-x.svg

<svg xmlns="http://www.w3.org/2000/svg" viewBox="0 0 22 22">
 <defs id="defs3051">
   <style type="text/css" id="current-color-scheme">
     .ColorScheme-Text {
       color:#f2f2f2;
     }
     </style>
 </defs>
   <path
      style="fill:currentColor;fill-opacity:1;stroke:none"
      d="m7.53125 3-4.0644531.0136719c-.12919.00043-.2455782.0519987-.3300781.1367187-.0843.0847-.1370988.2011682-.1367188.3300782l.0136719 4.0546874c.00083.2578601.21029.4657238.46875.4648438.25842-.00082.4675668-.21095.4667969-.46875l-.0117188-3.5859375 3.5957031-.0117187c.25841-.0008101.4676269-.2110001.4667969-.46875-.00069-.2578701-.21017-.4657338-.46875-.4648438zm6.068359 0c-.3324 0-.599609.2672094-.599609.5996094v4.8007812c0 .3324.267209.5996094.599609.5996094h4.800782c.3324 0 .599609-.2672094.599609-.5996094v-4.8007812c0-.3324-.267209-.5996094-.599609-.5996094zm-5.5449215 6-5.0546875 5 5.0546875 5v-2.857422l7.9453125-2.142578-7.9453125-2.142578zm10.4628905 5c-.25842.00082-.467567.21094-.466797.46875l.011719 3.585938-3.595703.011718c-.25841.00081-.467627.211-.466797.46875.0007.25787.21017.465734.46875.464844l4.064453-.013672c.1292-.00042.245578-.051999.330078-.136719.0844-.0847.137099-.201168.136719-.330078l-.013672-4.054687c-.00082-.25786-.21029-.465724-.46875-.464844z"
      class="ColorScheme-Text" />
</svg>

<svg xmlns="http://www.w3.org/2000/svg" viewBox="0 0 22 22">
  <defs id="defs3051">
    <style type="text/css" id="current-color-scheme">
      .ColorScheme-Text {
        color:#f2f2f2
      }
      </style>
  </defs>
    <path
       style="fill:currentColor;fill-opacity:1;stroke:none"
       class="ColorScheme-Text"
       d="M 7.53125 3 L 3.4667969 3.0136719 C 3.3376069 3.0141019 3.2212187 3.0656706 3.1367188 3.1503906 C 3.0524188 3.2350906 2.99962 3.3515588 3 3.4804688 L 3.0136719 7.5351562 C 3.0145019 7.7930163 3.2239619 8.00088 3.4824219 8 C 3.7408419 7.99918 3.9499887 7.78905 3.9492188 7.53125 L 3.9375 3.9453125 L 7.5332031 3.9335938 C 7.7916131 3.9327837 8.00083 3.7225937 8 3.4648438 C 7.99931 3.2069737 7.78983 2.99911 7.53125 3 z M 13.599609 3 C 13.267209 3 13 3.2672094 13 3.5996094 L 13 8.4003906 C 13 8.7327906 13.267209 9 13.599609 9 L 18.400391 9 C 18.732791 9 19 8.7327906 19 8.4003906 L 19 3.5996094 C 19 3.2672094 18.732791 3 18.400391 3 L 13.599609 3 z M 8.0546875 9 L 3 14 L 8.0546875 19 L 8.0546875 16.142578 L 16 14 L 8.0546875 11.857422 L 8.0546875 9 z M 18.517578 14 C 18.259158 14.00082 18.050011 14.21094 18.050781 14.46875 L 18.0625 18.054688 L 14.466797 18.066406 C 14.208387 18.067216 13.99917 18.277406 14 18.535156 C 14.0007 18.793026 14.21017 19.00089 14.46875 19 L 18.533203 18.986328 C 18.662403 18.985908 18.778781 18.934329 18.863281 18.849609 C 18.947681 18.764909 19.00038 18.648441 19 18.519531 L 18.986328 14.464844 C 18.985508 14.206984 18.776038 13.99912 18.517578 14 z "
        />
</svg>
